X:239
T:Hornpipe TS.239
M:C
L:1/8
Q:1/2=90
S:Thomas Sands’ MS,1810,Lincolnshire
R:.hornpipe
O:England;Lincolnshire
Z:vmp.Ruairidh Greig, 2011
K:Bb
(3FGA|BFBF B2FE|D2B,2B,2Bc|dBdB dfed|c2F2F2fe|
dbbg fgfe|dbbg fgfe|dfbf gecA|B2B2B2:|
|:(3cd=e|fcfcf2cd|ecAcB3d|g^fga bga=f|d2g2g3a|
babab3a|g^fgfg3=f|edcB Agfe|d2B2B2:|]

